icons/tag-list-outline.svg

<svg xmlns="http://www.w3.org/2000/svg" width="24" height="24" viewBox="0 0 24 24">
  <path d="M13,2 C13.2652165,2 13.5195704,2.10535684 13.7071068,2.29289322 L13.7071068,2.29289322 L21.2928932,9.87867966 C22.4644661,11.0502525 22.4644661,12.9497475 21.2928932,14.1213203 L21.2928932,14.1213203 L14.1213203,21.2928932 C12.9497475,22.4644661 11.0502525,22.4644661 9.87867966,21.2928932 L9.87867966,21.2928932 L2.29289322,13.7071068 C2.10535684,13.5195704 2,13.2652165 2,13 L2,13 L2,5 C2,3.34314575 3.34314575,2 5,2 L5,2 Z M12.585,4 L5,4 C4.44771525,4 4,4.44771525 4,5 L4,5 L4,12.585 L11.2928932,19.8786797 C11.6533772,20.2391636 12.2206082,20.2668932 12.6128994,19.9618683 L12.6128994,19.9618683 L12.7071068,19.8786797 L19.8786797,12.7071068 C20.2692039,12.3165825 20.2692039,11.6834175 19.8786797,11.2928932 L19.8786797,11.2928932 L12.585,4 Z M15,13 C15.5522847,13 16,13.4477153 16,14 C16,14.5128358 15.6139598,14.9355072 15.1166211,14.9932723 L15,15 L9,15 C8.44771525,15 8,14.5522847 8,14 C8,13.4871642 8.38604019,13.0644928 8.88337887,13.0067277 L9,13 L15,13 Z M15,9 C15.5522847,9 16,9.44771525 16,10 C16,10.5128358 15.6139598,10.9355072 15.1166211,10.9932723 L15,11 L9,11 C8.44771525,11 8,10.5522847 8,10 C8,9.48716416 8.38604019,9.06449284 8.88337887,9.00672773 L9,9 L15,9 Z"/>
</svg>

<svg xmlns="http://www.w3.org/2000/svg" viewBox="0 0 24 24">
  <path d="M13 2a1 1 0 0 1 .7.3l7.6 7.58a3 3 0 0 1 0 4.24l-7.18 7.17a3 3 0 0 1-4.24 0l-7.59-7.58A1 1 0 0 1 2 13V5a3 3 0 0 1 3-3zm-.41 2H5a1 1 0 0 0-1 1v7.59l7.3 7.29a1 1 0 0 0 1.31.08l.1-.08 7.17-7.17a1 1 0 0 0 0-1.42L12.58 4zM15 13a1 1 0 0 1 .12 2H9a1 1 0 0 1-.12-2H15zm0-4a1 1 0 0 1 .12 2H9a1 1 0 0 1-.12-2H15z"/>
</svg>
